X: 29940
T: O'Sullivan's March
R: jig
M: 6/8
K: Amajor
|:AcA Bce|fec B2E|AcB c2B|BAF AFE|
AcA Bce|fec B2E|AcB c2B|1 BAA A3:|2 BAA Ace||
|:f2a f2a|f-f/a/f fec|e-e/f/e ece|fac B-B//c//B/A|
d-d/c/d ece|fac B2E|AcB c2B|1 BAA Aag:|2 BAA A3||

